src/images/f1-seasons-logo.svg

<svg width="62" height="25" viewBox="0 0 62 25" fill="#ffffff" xmlns="http://www.w3.org/2000/svg">
    <path d="M33.84 15.72H27.36L25.76 25H18.16L22.56 0H38.16L36.04 6.4H29L28.44 9.76H34.92L33.84 15.72ZM16.96 24.88L0 23.08H17.28L16.96 24.88ZM18.32 17.16L1.36 15.36H18.64L18.32 17.16ZM19 13.32L2.04 11.52H19.32L19 13.32ZM19.68 9.48L2.72 7.68H20L19.68 9.48ZM20.36 5.64L3.4 3.84H20.64L20.36 5.64ZM17.64 21L0.68 19.2H17.96L17.64 21ZM21 1.8L4.08 0H21.32L21 1.8ZM56.8006 25H48.8006L51.7606 8H45.0806L46.0806 2.08L55.1606 0H61.1606L56.8006 25ZM47.5606 24.88L30.6006 23.08H47.8806L47.5606 24.88ZM48.9206 17.16L31.9606 15.36H49.2406L48.9206 17.16ZM49.6006 13.32L32.6406 11.52H49.9206L49.6006 13.32ZM43.6006 9.48L26.6406 7.68H43.9206L43.6006 9.48ZM44.2406 5.64L27.2806 3.84H44.5206L44.2406 5.64ZM48.2406 21L31.2806 19.2H48.5606L48.2406 21ZM44.9206 1.44L32.4406 0H49.7206L45.0006 1.08L44.9206 1.44Z"
          fill="#ffffff"/>
</svg>

<svg width="62" height="25" fill="#fff" xmlns="http://www.w3.org/2000/svg"><path d="M33.84 15.72h-6.48L25.76 25h-7.6l4.4-25h15.6l-2.12 6.4H29l-.56 3.36h6.48l-1.08 5.96zm-16.88 9.16L0 23.08h17.28l-.32 1.8zm1.36-7.72l-16.96-1.8h17.28l-.32 1.8zm.68-3.84l-16.96-1.8h17.28l-.32 1.8zm.68-3.84L2.72 7.68H20l-.32 1.8zm.68-3.84L3.4 3.84h17.24l-.28 1.8zM17.64 21L.68 19.2h17.28l-.32 1.8zM21 1.8L4.08 0h17.24L21 1.8zM56.8 25h-8l2.96-17h-6.68l1-5.92L55.16 0h6L56.8 25zm-9.24-.12l-16.96-1.8h17.28l-.32 1.8zm1.36-7.72l-16.96-1.8h17.28l-.32 1.8zm.68-3.84l-16.96-1.8h17.28l-.32 1.8zm-6-3.84l-16.96-1.8h17.28l-.32 1.8zm.64-3.84l-16.96-1.8h17.24l-.28 1.8zm4 15.36l-16.96-1.8h17.28l-.32 1.8zM44.92 1.44L32.44 0h17.28L45 1.08l-.08.36z"/></svg>
